img/brand/logo.svg

<svg width="135" height="48" viewBox="0 0 135 48" fill="none" xmlns="http://www.w3.org/2000/svg">
<path d="M0 2H29.1427V16.5713H14.5713L0 2ZM0 16.5713H14.5713L29.1427 31.1427H0V16.5713ZM0 31.1427H14.5713V45.714L0 31.1427Z" fill="black" fill-opacity="0.7"/>
<path d="M45.5859 13.4954H57.3659V17.2387H50.0446V22.4407H57.3659V26.1014H50.0446V32.762H45.5859V13.4954ZM59.7879 19.4954H63.9993V22.2754C64.2193 21.32 64.6693 20.5867 65.3479 20.0734C66.0439 19.5407 66.8166 19.2754 67.6599 19.2754C68.1006 19.2754 68.4679 19.3127 68.7606 19.3854V23.294C68.3406 23.2434 67.9179 23.216 67.4946 23.2114C66.3386 23.2114 65.4679 23.5867 64.8799 24.3394C64.2939 25.0734 63.9993 26.174 63.9993 27.6427V32.762H59.7899V19.4954H59.7879ZM75.4086 33.12C74.1246 33.12 73.0046 32.8167 72.0506 32.2114C71.1146 31.606 70.3706 30.7467 69.9039 29.734C69.4086 28.6707 69.1593 27.4674 69.1593 26.1287C69.1593 24.8074 69.4179 23.614 69.9313 22.5507C70.4126 21.5234 71.1766 20.6547 72.1333 20.046C73.1046 19.4407 74.2153 19.1374 75.4639 19.1374C76.3993 19.1374 77.2353 19.34 77.9686 19.7434C78.7019 20.148 79.2526 20.6987 79.6199 21.3947V19.4954H83.8033V32.762H79.6199V30.89C79.2526 31.5507 78.6839 32.0914 77.9133 32.514C77.1426 32.9227 76.2813 33.1307 75.4086 33.12ZM76.6199 29.624C77.6286 29.624 78.4086 29.294 78.9593 28.6334C79.5099 27.9727 79.7853 27.1374 79.7853 26.1287C79.7853 25.138 79.5099 24.312 78.9593 23.6514C78.4086 22.9907 77.6286 22.6607 76.6199 22.6607C75.6646 22.6607 74.8953 22.9814 74.3079 23.624C73.7393 24.2667 73.4546 25.1007 73.4546 26.1287C73.4546 27.1567 73.7393 28 74.3079 28.6607C74.8953 29.3034 75.6659 29.624 76.6199 29.624ZM86.7486 19.4954H90.9599V21.422C91.2546 20.742 91.7306 20.1914 92.3906 19.7707C93.0706 19.35 93.8593 19.1374 94.7579 19.1374C96.8499 19.1374 98.2359 19.9534 98.9139 21.5874C99.2873 20.8467 99.8713 20.234 100.593 19.826C101.365 19.3614 102.252 19.1234 103.153 19.1374C106.291 19.1374 107.859 20.9347 107.859 24.532V32.762H103.621V25.3027C103.621 24.4047 103.455 23.744 103.125 23.3214C102.795 22.9 102.299 22.688 101.639 22.688C100.923 22.688 100.373 22.936 99.9873 23.4314C99.6019 23.9087 99.4093 24.7427 99.4093 25.936V32.762H95.1706V25.2754C95.1706 24.3767 95.0059 23.7247 94.6753 23.3214C94.3646 22.9 93.8773 22.688 93.2179 22.688C92.4833 22.688 91.9233 22.936 91.5379 23.4314C91.1526 23.9087 90.9599 24.7427 90.9599 25.936V32.762H86.7499V19.4954H86.7486ZM123.679 25.4407C123.679 26.0087 123.642 26.624 123.567 27.2847H113.771C113.808 28.1474 114.101 28.8067 114.651 29.2667C115.202 29.7247 115.947 29.9547 116.881 29.9547C118.184 29.9547 119.01 29.5594 119.358 28.7707H123.487C123.284 30.074 122.569 31.128 121.339 31.936C120.129 32.7247 118.642 33.12 116.881 33.12C114.606 33.12 112.817 32.5047 111.513 31.2754C110.229 30.0454 109.587 28.3307 109.587 26.1287C109.587 24.6974 109.88 23.4587 110.467 22.4127C111.035 21.368 111.909 20.5227 112.972 19.9907C114.055 19.4227 115.312 19.1374 116.745 19.1374C118.101 19.1374 119.303 19.4034 120.349 19.936C121.413 20.4687 122.23 21.2114 122.798 22.1654C123.386 23.1207 123.679 24.212 123.679 25.4407ZM119.521 24.67C119.503 23.7894 119.256 23.1187 118.778 22.6607C118.302 22.2027 117.613 21.9727 116.714 21.9727C115.815 21.9727 115.1 22.22 114.567 22.716C114.054 23.1934 113.788 23.844 113.769 24.67H119.521ZM125.536 19.4954H129.747V22.2754C129.967 21.32 130.417 20.5867 131.096 20.0734C131.755 19.5547 132.569 19.2734 133.408 19.2754C133.848 19.2754 134.216 19.3127 134.509 19.3854V23.294C134.089 23.2434 133.666 23.216 133.243 23.2114C132.087 23.2114 131.216 23.5867 130.628 24.3394C130.04 25.0734 129.747 26.174 129.747 27.6427V32.762H125.536V19.4954Z" fill="black" fill-opacity="0.7"/>
</svg>

<svg xmlns="http://www.w3.org/2000/svg" width="135" height="48" fill="none"><path fill="#000" fill-opacity=".7" d="M0 2h29.143v14.571H14.57L0 2Zm0 14.571h14.571l14.572 14.572H0V16.57Zm0 14.572h14.571v14.571L0 31.143ZM45.586 13.495h11.78v3.744h-7.321v5.202h7.32v3.66h-7.32v6.661h-4.46V13.495Zm14.202 6h4.211v2.78c.22-.955.67-1.688 1.349-2.202a3.718 3.718 0 0 1 2.312-.798c.44 0 .808.038 1.1.11v3.909c-.42-.05-.842-.078-1.265-.083-1.156 0-2.027.376-2.615 1.128-.586.734-.88 1.835-.88 3.304v5.119h-4.21V19.495h-.002Zm15.62 13.625c-1.283 0-2.403-.303-3.357-.909a5.88 5.88 0 0 1-2.147-2.477c-.495-1.063-.745-2.267-.745-3.605 0-1.322.259-2.515.772-3.578a5.972 5.972 0 0 1 2.202-2.505c.972-.605 2.082-.909 3.33-.909.936 0 1.772.203 2.506.606.733.405 1.284.956 1.65 1.652v-1.9h4.184v13.267H79.62V30.89c-.367.66-.936 1.201-1.707 1.624a5.21 5.21 0 0 1-2.504.606Zm1.212-3.496c1.009 0 1.789-.33 2.34-.99.55-.661.825-1.497.825-2.505 0-.991-.275-1.817-.826-2.478-.55-.66-1.33-.99-2.34-.99-.954 0-1.724.32-2.311.963-.569.643-.853 1.477-.853 2.505 0 1.028.284 1.871.853 2.532.587.642 1.358.963 2.312.963Zm10.129-10.129h4.21v1.927c.296-.68.772-1.23 1.432-1.651.68-.421 1.468-.634 2.367-.634 2.092 0 3.478.816 4.156 2.45a4.189 4.189 0 0 1 1.679-1.761 4.819 4.819 0 0 1 2.56-.689c3.138 0 4.706 1.798 4.706 5.395v8.23h-4.238v-7.46c0-.897-.166-1.558-.496-1.98-.33-.422-.826-.634-1.486-.634-.716 0-1.266.248-1.652.743-.385.478-.578 1.312-.578 2.505v6.826h-4.238v-7.487c0-.898-.165-1.55-.496-1.954-.31-.421-.798-.633-1.457-.633-.735 0-1.295.248-1.68.743-.385.478-.578 1.312-.578 2.505v6.826h-4.21V19.495h-.001Zm36.93 5.946c0 .568-.037 1.183-.112 1.844h-9.796c.037.862.33 1.522.88 1.982.551.458 1.296.688 2.23.688 1.303 0 2.129-.396 2.477-1.184h4.129c-.203 1.303-.918 2.357-2.148 3.165-1.21.789-2.697 1.184-4.458 1.184-2.275 0-4.064-.615-5.368-1.845-1.284-1.23-1.926-2.944-1.926-5.146 0-1.432.293-2.67.88-3.716a5.812 5.812 0 0 1 2.505-2.422c1.083-.568 2.34-.854 3.773-.854 1.356 0 2.558.266 3.604.799 1.064.533 1.881 1.275 2.449 2.23.588.955.881 2.046.881 3.275Zm-4.158-.771c-.018-.88-.265-1.551-.743-2.01-.476-.457-1.165-.687-2.064-.687s-1.614.247-2.147.743c-.513.477-.779 1.128-.798 1.954h5.752Zm6.015-5.175h4.211v2.78c.22-.955.67-1.688 1.349-2.202a3.723 3.723 0 0 1 2.312-.798c.44 0 .808.038 1.101.11v3.909c-.42-.05-.843-.078-1.266-.083-1.156 0-2.027.376-2.615 1.128-.588.734-.881 1.835-.881 3.304v5.119h-4.211V19.495Z"/></svg>
